X:1
T:Après un rêve
T:Après un rêve
T:Gabriel Fauré (1845-1924)
T:Double bass
T:Public domain - Trancribed by José Alexandre Lemos (2020)
C:Gabriel Fauré (1845-1924)
Z:Public domain - Trancribed by José Alexandre Lemos (2020)
L:1/8
Q:1/4=94
M:3/4
K:F
V:1 bass transpose=-12 nm="Contrabass" snm="Cb."
V:1
"^Andantino" z6 |!p! (!1!A,2!<(! !1!D2) !2!E2!<)! | (F2- (3F!4!ED (3F)!tenuto!E!tenuto!D | %3
!>(! (D4 C2)!>)! | (!4!_EG,) (E2 !4!D!2!^C) |!<(! D3 (D C>!2!B,)!<)! | %6
!>(! (A,2- (3A,!1!B,C (3B,CD)!>)! | A,6 | (A,2 (3:2:2F,2 G,) (3:2:2(A,2 !1!B,) | %9
 (!4!C2- (3CG,)!tenuto!G, (3(G,^F,G,) | (B,4 A,2) |!<(! D2 D3 _D!<)! | C2 F,2 F,2 | %13
!>(! (G,2- (3G,_A,B,) (3(A,B,C)!>)! | (C4 F,2) | z6 |!<(! (A,2 D2) E2!<)! | %17
 F2- (3F!tenuto!E!tenuto!D (3(FED) |!>(! D4 C2!>)! | (_EG,) E z (D^C) | D3 D (CB,) | %21
 A,2- (3A,!tenuto!B,!tenuto!C (3(B,CD) | A,6 | A,2 (3:2:2(!tenuto!F,2 !tenuto!G,) (3:2:2(A,2 B,) | %24
 (C2- CG,) (3(G,^F,G,) | (B,2 A,2) D,2 |"_cresc." (_E,2- (3E,!1!F,G,) (3(F,!1!G,A,) | %27
 (A,2 D,2) !2!^F,2 | !4!G,2- (3(G,!tenuto!!1!A,!tenuto!!1!B,) (3(CB,!1!C) | %29
 (D2 D,2)!<(! !1!D2!<)! |!f! !3!G4 !4!G,2 | (G,2- (3G,!1!A,!2!=B,) (3(C!1!DE) | %32
 _E2- (3E!>(!(!1!D!4!F (3E!4!DC)!>)! | !4!_E4!<(! C2!<)! | F4 _E2 | (_E2- (3ED)C (3(B,A,G,) | %36
 (A,2-!>(! (3A,B,A, (3G,)!tenuto!A,!tenuto!B,!>)! | A,4 A,2 |"_cresc." D4 D2 | D4 D>E |!f! F6 | %41
 E4 E2 |!p! E4 D2 | C3 A, (F,G,) |!pp! (A,2- (3A,G,F, (3G,A,B,) | A,6 | D,6 | z6 |] %48

